X:1014
T:Sandy And Aileen Mitchell
C:Joe Buchanan's Scottish Tome - Page 607.0
I:607 0
Z:Carl Allison
R:Waltz
L:1/4
M:3/4
K:Bb
P:A
W:Play A twice -  B twice - A once - C twice - A once - D twice - A once
%%vskip 10
"F7"d/>c/ | "Bb"B>G F | "F/Bb"F2 e/>d/ | "D/Bb7"B>G F | "Eb"e2 f/g/ | "Bb"f>d B | "Gm7"F>B d | "C7"c3 | "F7"c2 d/>c/ |
"Bb"B>G F | "F/Bb"F2 d/>c/ | "D/Bb7"B>G F | "Eb"e2 "Eb/Bb7"f/g/ | "F"f>d "Bb"B | "C/F7"c F>c | "Bb"B3 "F  D" | "Bb"B2 :|
P:B
"F7"d/>e/ | "Bb"f>d B | "F/Bb"F2 d/>e/ | "Bb"f>d B  | "D/Bb"F2 f/>d/  | "C/F7"e>c A  | "F7"F>G A | "Gm"B>c d | "A/F7"c2 d/>e/ |
"Bb"f>d B | "F/Bb"F2 d/>e/ | "Bb"f>d B | "D/Cb"F2 "Db/Bb"f/>d/ | "C/F7"e>c A | "F7"c F>c | "Bb"B3"F   D" | "Bb"B2 :|[K:F]
P:C
"C7"A/>B/ | "F"c2 d/>e/ | "Bb"f2 e/>d/ | "F"c A>F | "Am"C2 c/>A/ | "Gm"B G>C | "C7"E2 F/G/ | "Dm"F2 G/A/ | "E/C7"G2 A/>B/ |
"F"c2 d/>e/ | "Bb"f2 e/>d/ | "F"c A>F | "Am"C2 c/>A/ | "Gm"B G>C | "C"e "D"C>"E"G | "F   C"F3 | "A    F"F2 :|
P:D
"C7"F/>D/ | "F"C F>G | "C/F"A2 F/>D/ | "F"C F>G | "Am"A2 G/>F/ | "Gm"G B>G | "C7"E2 F/G/ | "Dm"F2 G/A/ | "E/C7"G2 F/>D/ |
"C7"F/>D/ | "F"C F>G | "C/F"A2 F/>D/ | "F"C F>G | "Am"A2 G/>F/ | "Gm"G B>G | "C7"E C>G | "F   C"F3 | "A    F"F2 :|
